X:289
T:An Old Reel
T:(The Heather Breeze)
B:Joyce, P. W.; "Old Irish Folk Music and Songs"
N:See #286 for history
A:Kilkenny
O:Irish
R:reel
L:1/8
M:C
K:G
D>GBG dGBG|DFAF cFAF|DGBG dGBG|ABcA BG G2:|
g2 (3agf gbag|fede fgaf|g2 (3agf gbag|fdcA G2 Bd|
g2 (3agf gbag|fede fgac'|(3bag (3agf gbag|fdcA BG G2||

